X:1
T:Title
%%score { ( 1 3 5 ) | ( 2 4 ) }
L:1/8
M:3/4
K:A
V:1 treble nm="Grand Piano"
V:3 treble 
V:5 treble 
V:2 bass 
V:4 bass 
V:1
 z2 z2[Q:1/4=90] CD | CC Cc [CA]F | z A3 z2 | B4 z2 |[M:2/4] E4 |[M:1/4] CD |[M:3/4] CC Cc BA | %7
 .B2 DD GA | z C Cc BE |[M:2/4] A4 |[M:1/4] GA |[M:3/4] B3 G FE | [CE] [CA]3 GA | B3 d cB | %14
[M:2/4] c4 |[M:1/4] cd |[M:3/4] e3 [Ec] [EB][EA] | B F3 GA | E3 c [^DB][Ec] |[M:2/4] [CA]4 |] %20
V:2
 z6 | [A,,A,][A,,A,] z E E,[^D,=C] | [A,,E,][A,,E,] [A,,E,][A,,E,] z2 | %3
 [D,F,D][D,F,] [D,F,]2 [A,D]-[F,A,D] |[M:2/4] [A,C][G,B,] A,2 |[M:1/4] z2 | %6
[M:3/4] [A,,A,][A,,A,] z E [B,,G,][C,=G,] | [D,F,D][D,B,D] [D,B,][D,B,] z2 | %8
 [E,A,C][E,A,] z E [E,D]-[E,B,D] |[M:2/4] A,,[A,,F,] [A,,E,]2 |[M:1/4] [E,B,][E,A,C] | %11
[M:3/4] [E,G,D]3 [E,B,D] [E,A,D][E,G,D] | [A,,A,] [A,,E,]3 [E,D][E,A,C] | %13
 [E,G,E]3 [E,B,E] [E,A,E][E,G,E] |[M:2/4][K:treble] [A,E]4 |[M:1/4] [A,E][A,B,E] | %16
[M:3/4] [A,CA]3[K:bass] [A,,A,] [B,,G,][C,=G,] | [D,F,D] [D,A,D]3 [^D,F,=C][D,F,C] | %18
 [E,A,C]3 [F,A,E] [B,,A,][E,G,] |[M:2/4] [A,,A,]4 |] %20
V:3
 x6 | E4 z2 | [CE]C CC GA | z D z A FA |[M:2/4] z D C2 |[M:1/4] x2 |[M:3/4] E4 E2 | z F3 z2 | %8
 E4 z2 |[M:2/4] [A,C]D C2 |[M:1/4] x2 |[M:3/4] x6 | x6 | x6 |[M:2/4] x4 |[M:1/4] x2 |[M:3/4] x6 | %17
 x6 | x6 |[M:2/4] x4 |] %20
V:4
 x6 | z2 [A,,A,]2 A,,2 | x6 | z2 z2 .D,2 |[M:2/4] x4 |[M:1/4] x2 |[M:3/4] z2 [A,,A,]2 z2 | x6 | %8
 z2 [E,A,]2 .G,2 |[M:2/4] x4 |[M:1/4] x2 |[M:3/4] x6 | x6 | x6 |[M:2/4][K:treble] x4 |[M:1/4] x2 | %16
[M:3/4] x3[K:bass] x3 | x6 | x6 |[M:2/4] x4 |] %20
V:5
 x6 | x6 | x6 | z2 D2 z2 |[M:2/4] x4 |[M:1/4] x2 |[M:3/4] x6 | x6 | x6 |[M:2/4] x4 |[M:1/4] x2 | %11
[M:3/4] x6 | x6 | x6 |[M:2/4] x4 |[M:1/4] x2 |[M:3/4] x6 | x6 | x6 |[M:2/4] x4 |] %20

